icons/op-ticket-down-24.svg

<svg width="24" height="24" viewBox="0 0 24 24" fill="none" xmlns="http://www.w3.org/2000/svg">
<path d="M16.7707 16.4062L18 14.125H17.0049V10.4375H13.9902V14.125H13.0537L14.2829 16.4062L15.5415 18.6875L16.7707 16.4062ZM13.4634 5.4375L16.5659 8.71875L17.5024 7.71875L14.0488 4H6V20H12.6439V18.5625H7.34634V5.4375H13.4634Z" fill="black"/>
</svg>

<svg xmlns="http://www.w3.org/2000/svg" width="24" height="24" viewBox="0 0 24 24"><path d="M16.771 16.406 18 14.125h-.995v-3.687H13.99v3.687h-.936l1.229 2.281 1.258 2.282 1.23-2.282ZM13.463 5.438l3.103 3.281.936-1L14.049 4H6v16h6.644v-1.438H7.346V5.438h6.117Z"/></svg>
